src/assets/duotone/CameraSlash.svg

<svg width="24" height="24" viewBox="0 0 24 24"  xmlns="http://www.w3.org/2000/svg">
<path d="M21.7699 2.22988C21.4699 1.92988 20.9799 1.92988 20.6799 2.22988L2.22988 20.6899C1.92988 20.9899 1.92988 21.4799 2.22988 21.7799C2.37988 21.9199 2.56988 21.9999 2.76988 21.9999C2.96988 21.9999 3.15988 21.9199 3.30988 21.7699L21.7699 3.30988C22.0799 3.00988 22.0799 2.52988 21.7699 2.22988Z" />
<path opacity="0.4" d="M21.7502 9.99L21.2302 18.25C21.1002 20.31 20.0002 22 17.2402 22H6.76022C6.17022 22 5.66021 21.92 5.22021 21.78L20.2502 6.75C21.2302 7.48 21.8402 8.67 21.7502 9.99Z" />
<path opacity="0.4" d="M18.0002 6L3.48017 20.52C3.03017 19.89 2.82017 19.1 2.77017 18.25L2.25017 9.99C2.11017 7.83 3.83017 6 6.00017 6C6.61017 6 7.17017 5.65 7.45017 5.11L8.17017 3.66C8.63017 2.75 9.83017 2 10.8602 2H13.1502C14.1702 2 15.3702 2.75 15.8302 3.66L16.5502 5.11C16.8302 5.65 17.3902 6 18.0002 6Z" />
<path d="M9.5 10.75H6.5C6.09 10.75 5.75 10.41 5.75 10C5.75 9.59 6.09 9.25 6.5 9.25H9.5C9.91 9.25 10.25 9.59 10.25 10C10.25 10.41 9.91 10.75 9.5 10.75Z" />
<path d="M12.5699 11.4299L8.67988 15.3199C8.64988 15.1399 8.62988 14.9399 8.62988 14.7499C8.62988 12.8899 10.1399 11.3799 11.9999 11.3799C12.1899 11.3799 12.3899 11.3999 12.5699 11.4299Z" />
<path d="M15.38 14.75C15.38 16.61 13.86 18.12 12 18.12C11.13 18.12 10.34 17.79 9.75 17.25L14.5 12.5C15.05 13.09 15.38 13.88 15.38 14.75Z" />
</svg>

<?xml version="1.0" encoding="UTF-8"?>
<svg width="24" height="24" viewBox="0 0 24 24" xmlns="http://www.w3.org/2000/svg">
 <path d="m21.77 2.2299c-0.3-0.3-0.79-0.3-1.09 0l-18.45 18.46c-0.3 0.3-0.3 0.79 0 1.09 0.15 0.14 0.34 0.22 0.54 0.22s0.39-0.08 0.54-0.23l18.46-18.46c0.31-0.3 0.31-0.78 0-1.08z"/>
 <path d="m21.75 9.99-0.52 8.26c-0.13 2.06-1.23 3.75-3.99 3.75h-10.48c-0.59 0-1.1-0.08-1.54-0.22l15.03-15.03c0.98 0.73 1.59 1.92 1.5 3.24z" opacity=".4"/>
 <path d="m18 6-14.52 14.52c-0.45-0.63-0.66-1.42-0.71-2.27l-0.52-8.26c-0.14-2.16 1.58-3.99 3.75-3.99 0.61 0 1.17-0.35 1.45-0.89l0.72-1.45c0.46-0.91 1.66-1.66 2.69-1.66h2.29c1.02 0 2.22 0.75 2.68 1.66l0.72 1.45c0.28 0.54 0.84 0.89 1.45 0.89z" opacity=".4"/>
 <path d="m9.5 10.75h-3c-0.41 0-0.75-0.34-0.75-0.75s0.34-0.75 0.75-0.75h3c0.41 0 0.75 0.34 0.75 0.75s-0.34 0.75-0.75 0.75z"/>
 <path d="m12.57 11.43-3.89 3.89c-0.03-0.18-0.05-0.38-0.05-0.57 0-1.86 1.51-3.37 3.37-3.37 0.19 0 0.39 0.02 0.57 0.05z"/>
 <path d="m15.38 14.75c0 1.86-1.52 3.37-3.38 3.37-0.87 0-1.66-0.33-2.25-0.87l4.75-4.75c0.55 0.59 0.88 1.38 0.88 2.25z"/>
</svg>
